app/assets/images/heroicons/micro/archive-box.svg

<svg width="16" height="16" viewBox="0 0 16 16" fill="none" xmlns="http://www.w3.org/2000/svg">
<path d="M3 2C2.44772 2 2 2.44772 2 3V4C2 4.55228 2.44772 5 3 5H13C13.5523 5 14 4.55228 14 4V3C14 2.44772 13.5523 2 13 2H3Z" fill="#0F172A"/>
<path fill-rule="evenodd" clip-rule="evenodd" d="M3 6H13V12C13 13.1046 12.1046 14 11 14H5C3.89543 14 3 13.1046 3 12V6ZM6 8.75C6 8.33579 6.33579 8 6.75 8H9.25C9.66421 8 10 8.33579 10 8.75C10 9.16421 9.66421 9.5 9.25 9.5H6.75C6.33579 9.5 6 9.16421 6 8.75Z" fill="#0F172A"/>
</svg>

<svg xmlns="http://www.w3.org/2000/svg" viewBox="0 0 16 16" fill="currentColor" aria-hidden="true" data-slot="icon">
  <path d="M3 2a1 1 0 0 0-1 1v1a1 1 0 0 0 1 1h10a1 1 0 0 0 1-1V3a1 1 0 0 0-1-1H3Z"/>
  <path fill-rule="evenodd" d="M3 6h10v6a2 2 0 0 1-2 2H5a2 2 0 0 1-2-2V6Zm3 2.75A.75.75 0 0 1 6.75 8h2.5a.75.75 0 0 1 0 1.5h-2.5A.75.75 0 0 1 6 8.75Z" clip-rule="evenodd"/>
</svg>
